X: 9333
T: Dancing At Lughnasa
R: reel
M: 4/4
K: Dmixolydian
|D3FA3B|cdcF G/G/G FG|Adfg fdBG|FGAd dAD2|
D3FA3B|cdcF G/G/G FG|Adfg abge|fgeA d2 z2|
D3FA3B|cdcF G/G/G FG|Adfg fdBG|FGAd dAD2|
D3FA3B|cdcF G/G/G FG|Adfg abge|fgeA d2 z2|

